!!!OTL: Die Schlangenkoechin.
!!!OTL-incipit: MARIA WO BIST DU ZU GASTE GEWESEN
!!!ARE: Europa, Mitteleuropa, Deutschland, Nord - Deutschland; Hessen
!!!SCT: Z1104
!!!TXL: @@DE
!!!YEM: Copyright 1995, estate of Helmut Schaffrath.
**kern	**text
*ICvox	*
*M3/8	*
*k[b-e-a-d-]	*
*f:	*
!LO:TX:a:t=Vorſänger. 	!
!LO:TX:a:t=Heſſen und Norddeutſchland.	!
{8f	Ma-
=1	=1
8f	-ri-
8f	-a,
8cc	wo
=2	=2
8cc	biſt
8cc	du
8b-	ʒu
=3	=3
8.cc	Ga-
16b-	-ſte
!LO:TX:a:t=Alle. 	!
8a-	ge-
=4	=4
8g	-we-
8g}	-ſen?
{8a-	Jhr
=5	=5
8f	Hei-
8e	-li-
8f	-gen
=6	=6
4g;	helft!
8a-	ihr
=7	=7
8f	Hei-
8e	-li-
8f	-gen
=8	=8
4g;}	helft!
!LO:TX:a:t=Vorſänger. 	!
{8cc	Ma-
=9	=9
8cc	-ri-
8cc	-a,
8g	mein
=10	=10
8a-	ein-
8a-	-ʒi-
8g	-ges
=11	=11
4f}	Kind!
==	==
!!!AGN: Romanze, Ballade, Tod
!!!ONB: ESAC (Essen Associative Code) Database: ZUCCAL
!!!AMT: simple triple
!!!AIN: vox
!!!EED: Helmut Schaffrath
!!!EEV: 1.0
!!!GTL: II. Gau- Leuschen.
!!!URL-scan: https://www.digitale-sammlungen.de/de/view/bsb11160573?page=223
!!!ENC: Anna Maria Matuszewska
!!!EEV: 2025/02/04
*-	*-
